www/assets/icons/battery_saver.svg

<svg xmlns="http://www.w3.org/2000/svg" width="24" height="24" viewBox="0 0 24 24" fill='currentColor'><path d="M16 4h-2V2h-4v2H8c-.55 0-1 .45-1 1v16c0 .55.45 1 1 1h8c.55 0 1-.45 1-1V5c0-.55-.45-1-1-1m-1 10h-2v2h-2v-2H9v-2h2v-2h2v2h2z"/></svg>

<svg width="24" height="24" viewBox="0 0 24 24" xmlns="http://www.w3.org/2000/svg" fill='currentColor'><path d="M16 4H14V2H10V4H8C7.45 4 7 4.45 7 5V21C7 21.55 7.45 22 8 22H16C16.55 22 17 21.55 17 21V5C17 4.45 16.55 4 16 4ZM15 14H13V16H11V14H9V12H11V10H13V12H15V14Z"/></svg>
